X: 31929
T: Peadar O'Haoine's
R: jig
M: 6/8
K: Dmixolydian
|:D|EAA ABc|BAB GED|EFG EFG|BAB AFD|
EAA ABc|BAB GAB|cAG A2G|FDD D2:|
|:g|fdd ede|fd^c def|ged e2d|^cAA A2d|
eaa efg|fef d^cA|=cAG A2G|FDD D2:|

